modules/themify-icons/icons/layout-media-center-alt.svg

<?xml version="1.0" encoding="utf-8"?>
<!-- Generated by IcoMoon.io -->
<!DOCTYPE svg PUBLIC "-//W3C//DTD SVG 1.1//EN" "http://www.w3.org/Graphics/SVG/1.1/DTD/svg11.dtd">
<svg version="1.1" xmlns="http://www.w3.org/2000/svg" xmlns:xlink="http://www.w3.org/1999/xlink" width="17" height="17" viewBox="0 0 17 17">
<g>
</g>
	<path d="M1 13h15v1h-15v-1zM4 15.993h9v-1h-9v1zM17 1v11h-17v-11h17zM16 2h-15v9h15v-9z" fill="#000000" />
</svg>

<svg xmlns="http://www.w3.org/2000/svg" width="17" height="17" viewBox="0 0 17 17"><path d="M1 13h15v1H1v-1zm3 2.993h9v-1H4v1zM17 1v11H0V1h17zm-1 1H1v9h15V2z"/></svg>
